;FLAVOR:UltiGCode
;TIME:4003
;MATERIAL:8386
;MATERIAL2:0
;NOZZLE_DIAMETER:0.4
;MINX:80.569
;MINY:78.169
;MINZ:0.3
;MAXX:142.431
;MAXY:124.022
;MAXZ:20.9
;Generated with Cura_SteamEngine main
M82 ;absolute extrusion mode
G0 F3000 Y50 ;avoid prime blob
G92 E0
G92 E0
G10
;LAYER_COUNT:104
;LAYER:0
M107
M204 S1000
M205 X20 Y20
G0 F3000 X82.516 Y80.639 Z0.3
G0 X80.569 Y86.302
;TYPE:SKIRT
G11
G1 F1800 X80.578 Y85.647 E0.07861
G1 X80.652 Y84.56 E0.20935
G1 X80.776 Y83.857 E0.29501
G1 X81.185 Y82.676 E0.44499
G1 X81.49 Y82.028 E0.53093
G1 X82.085 Y81.147 E0.6585
G1 X82.516 Y80.639 E0.73845
G1 X82.982 Y80.168 E0.81796
G1 X83.425 Y79.787 E0.88807
G1 X84.09 Y79.304 E0.9867
G1 X84.716 Y78.939 E1.07366
G1 X85.886 Y78.49 E1.22404
G1 X86.591 Y78.304 E1.31154
G1 X87.371 Y78.221 E1.40566
G1 X87.961 Y78.182 E1.47662
G1 X88.784 Y78.17 E1.57539
G1 X134.299 Y78.169 E7.03719
G1 X134.958 Y78.178 E7.11628
G1 X136.017 Y78.246 E7.24362
G1 X136.748 Y78.377 E7.33274
G1 X137.914 Y78.781 E7.48082
G1 X138.569 Y79.089 E7.56767
G1 X139.472 Y79.701 E7.69858
G1 X139.964 Y80.118 E7.77597
G1 X140.435 Y80.585 E7.85556
G1 X140.813 Y81.026 E7.92526
G1 X141.31 Y81.712 E8.02691
G1 X141.662 Y82.319 E8.11112
G1 X142.11 Y83.484 E8.2609
G1 X142.299 Y84.195 E8.34918
G1 X142.378 Y84.952 E8.44051
G1 X142.418 Y85.555 E8.51303
G1 X142.43 Y86.416 E8.61636
G1 X142.431 Y103.864 E10.71012
G1 X142.418 Y104.741 E10.81537
G1 X142.353 Y105.509 E10.90786
G1 X142.254 Y106.096 E10.9793
G1 X142.098 Y106.706 E11.05485
G1 X141.905 Y107.286 E11.12821
G1 X141.571 Y108.026 E11.22563
G1 X141.135 Y108.768 E11.32891
G1 X140.417 Y109.669 E11.46716
G1 X139.599 Y110.528 E11.6095
G1 X137.758 Y112.518 E11.93481
G1 X135.948 Y114.587 E12.26469
G1 X134.227 Y116.671 E12.58902
G1 X132.013 Y119.536 E13.02352
G1 X131.168 Y120.663 E13.19255
G1 X130.532 Y121.343 E13.30428
G1 X130.034 Y121.805 E13.38579
G1 X129.364 Y122.326 E13.48764
G1 X128.74 Y122.725 E13.57652
G1 X127.947 Y123.148 E13.68437
G1 X127.096 Y123.487 E13.7943
G1 X126.424 Y123.703 E13.879
G1 X125.532 Y123.889 E13.98834
G1 X124.807 Y123.989 E14.07616
G1 X123.923 Y124.016 E14.18229
G1 X123.406 Y123.998 E14.24437
G1 X122.634 Y123.92 E14.33748
G1 X119.925 Y123.643 E14.66426
G1 X117.204 Y123.444 E14.99165
G1 X114.475 Y123.321 E15.31946
G1 X111.778 Y123.275 E15.64315
G1 X109.015 Y123.308 E15.97473
G1 X106.316 Y123.415 E16.29887
G1 X103.571 Y123.602 E16.62903
G1 X100.304 Y123.928 E17.02302
G1 X99.92 Y123.973 E17.06941
G1 X99.084 Y124.022 E17.16991
G1 X98.218 Y123.991 E17.27389
G1 X97.294 Y123.858 E17.38592
G1 X96.631 Y123.715 E17.4673
G1 X95.859 Y123.478 E17.56421
G1 X95.071 Y123.155 E17.66641
G1 X94.264 Y122.722 E17.77631
G1 X93.667 Y122.346 E17.86097
G1 X93.038 Y121.868 E17.95577
G1 X92.431 Y121.314 E18.05439
G1 X91.972 Y120.815 E18.13575
G1 X91.562 Y120.311 E18.21371
G1 X90.905 Y119.43 E18.34559
G1 X89.218 Y117.231 E18.67818
G1 X87.48 Y115.095 E19.00863
G1 X85.722 Y113.056 E19.3317
G1 X83.865 Y111.021 E19.66229
G1 X83.371 Y110.508 E19.74775
G1 X82.594 Y109.681 E19.88392
G1 X82.197 Y109.19 E19.95969
G1 X81.836 Y108.712 E20.03157
G1 X81.412 Y108.013 E20.12968
G1 X81.07 Y107.207 E20.23475
G1 X80.892 Y106.674 E20.30218
G1 X80.739 Y106.063 E20.37776
G1 X80.643 Y105.477 E20.44902
G1 X80.58 Y104.609 E20.55345
G1 X80.57 Y103.905 E20.63794
G1 X80.569 Y86.302 E22.7503
G0 F3000 X80.969 Y86.307
G1 F1800 X80.986 Y85.463 E22.8516
G1 X81.051 Y84.573 E22.95869
G1 X81.225 Y83.782 E23.05588
G1 X81.568 Y82.793 E23.18149
G1 X81.941 Y82.074 E23.27869
G1 X82.411 Y81.379 E23.37937
G1 X82.8 Y80.92 E23.45157
G1 X83.266 Y80.449 E23.53108
G1 X83.66 Y80.111 E23.59337
G1 X84.361 Y79.604 E23.69719
G1 X85.075 Y79.229 E23.79397
G1 X86.043 Y78.858 E23.91837
G1 X86.838 Y78.68 E24.01613
G1 X87.753 Y78.585 E24.12652
G1 X88.784 Y78.57 E24.25025
G1 X134.294 Y78.569 E29.71145
G1 X135.14 Y78.586 E29.81299
G1 X136.03 Y78.65 E29.92007
G1 X136.819 Y78.825 E30.01705
G1 X137.782 Y79.156 E30.13925
G1 X138.523 Y79.541 E30.23945
G1 X139.24 Y80.027 E30.34339
G1 X139.682 Y80.402 E30.41295
G1 X140.153 Y80.869 E30.49254
G1 X140.489 Y81.261 E30.5545
G1 X140.994 Y81.957 E30.65769
G1 X141.369 Y82.672 E30.75457
G1 X141.748 Y83.663 E30.88189
G1 X141.923 Y84.448 E30.97841
G1 X141.98 Y84.994 E31.04428
G1 X142.018 Y85.561 E31.11247
G1 X142.03 Y86.416 E31.21508
G1 X142.031 Y103.859 E33.30824
G1 X142.018 Y104.729 E33.41266
G1 X141.955 Y105.475 E33.50249
G1 X141.866 Y105.997 E33.56604
G1 X141.647 Y106.854 E33.67218
G1 X141.207 Y107.861 E33.80405
G1 X140.813 Y108.531 E33.89733
G1 X140.119 Y109.402 E34.03097
G1 X139.342 Y110.217 E34.16609
G1 X137.462 Y112.248 E34.4982
G1 X135.639 Y114.332 E34.83046
G1 X133.911 Y116.426 E35.15625
G1 X131.696 Y119.292 E35.59091
G1 X130.862 Y120.406 E35.7579
G1 X130.26 Y121.049 E35.8636
G1 X129.769 Y121.505 E35.94401
G1 X129.116 Y122.012 E36.04322
G1 X128.422 Y122.442 E36.14119
G1 X127.805 Y122.771 E36.2251
G1 X127.107 Y123.063 E36.31589
G1 X126.321 Y123.316 E36.41497
G1 X125.477 Y123.493 E36.51846
G1 X124.79 Y123.588 E36.60168
G1 X124.072 Y123.621 E36.68793
G1 X123.42 Y123.598 E36.76622
G1 X122.701 Y123.524 E36.85296
G1 X119.958 Y123.245 E37.18382
G1 X117.251 Y123.046 E37.50953
G1 X114.5 Y122.922 E37.83999
G1 X111.745 Y122.876 E38.17063
G1 X108.995 Y122.908 E38.50066
G1 X106.309 Y123.015 E38.82323
G1 X103.535 Y123.204 E39.15688
G1 X99.649 Y123.594 E39.62555
G1 X99.073 Y123.621 E39.69474
G1 X98.256 Y123.592 E39.79284
G1 X97.378 Y123.467 E39.89927
G1 X96.741 Y123.33 E39.97745
G1 X95.981 Y123.096 E40.07288
G1 X95.239 Y122.792 E40.1691
G1 X94.477 Y122.383 E40.27288
G1 X93.882 Y122.009 E40.35722
G1 X93.189 Y121.464 E40.46301
G1 X92.719 Y121.036 E40.53929
G1 X92.098 Y120.36 E40.64945
G1 X91.222 Y119.186 E40.82522
G1 X89.526 Y116.976 E41.15951
G1 X87.795 Y114.848 E41.48869
G1 X86.004 Y112.771 E41.8178
G1 X84.184 Y110.775 E42.14194
G1 X83.663 Y110.234 E42.23207
G1 X82.972 Y109.498 E42.35321
G1 X82.516 Y108.949 E42.43886
G1 X82.155 Y108.471 E42.51074
G1 X81.777 Y107.847 E42.59828
G1 X81.341 Y106.82 E42.73217
G1 X81.127 Y105.966 E42.83782
G1 X81.041 Y105.445 E42.90118
G1 X80.98 Y104.602 E43.00261
G1 X80.97 Y103.905 E43.08626
G1 X80.969 Y86.307 E45.19802
G10
G0 F3000 X88.011 Y102.201
;TYPE:SUPPORT
G11
G1 F1800 X88.011 Y105.779 E45.62738
G1 X89.674 Y105.779 E45.82694
G1 X90.678 Y104.037 E46.06821
G1 X90.678 Y103.944 E46.07937
G1 X90.69 Y104.013 E46.08777
G1 X86.562 Y104.013 E46.58313
G1 X87.606 Y102.201 E46.83408
G1 X89.674 Y102.201 E47.08224
G10
G0 F3000 X133.35 Y84.421
G11
G1 F1800 X133.35 Y87.999 E47.5116
G1 X135.394 Y87.999 E47.75688
G1 X136.017 Y86.918 E47.9066
G1 X136.017 Y85.503 E48.0764
G1 X135.925 Y85.344 E48.09845
G1 X132.792 Y85.344 E48.47441
G1 X133.326 Y84.421 E48.60237
G1 X135.394 Y84.421 E48.85053
G10
;MESH:feather_casing.STL
G0 F3000 X131.845 Y86.21
G0 X130.855 Y86.141
;TYPE:WALL-OUTER
G11
G1 F1800 X132.53 Y83.241 E49.25241
G1 X132.669 Y83.143 E49.27281
G1 X136.051 Y83.143 E49.67865
G1 X136.158 Y83.197 E49.69304
G1 F1805 X137.844 Y86.109 E50.09581
G1 X137.87 Y86.243 E50.11215
G1 X137.844 Y86.309 E50.12064
G1 X136.161 Y89.229 E50.52407
G1 X136.056 Y89.279 E50.53799
G1 F1800 X132.679 Y89.278 E50.94323
G1 X132.562 Y89.233 E50.95827
G1 X130.865 Y86.291 E51.36583
G1 X130.855 Y86.141 E51.38387
G0 F3000 X130.955 Y85.968
G10
G0 X120.495 Y114.371
G11
G1 F1800 X120.603 Y113.778 E51.4562
G1 X120.859 Y113.072 E51.54632
G1 X121.314 Y112.426 E51.64114
G1 X121.751 Y111.993 E51.71496
G1 X122.25 Y111.646 E51.7879
G1 X122.802 Y111.39 E51.86091
G1 X123.556 Y111.193 E51.95443
G1 X124.309 Y111.193 E52.04479
G1 X124.89 Y111.294 E52.11556
G1 X125.63 Y111.561 E52.20996
G1 X126.274 Y112.014 E52.30444
G1 X126.707 Y112.451 E52.37827
G1 X127.054 Y112.95 E52.4512
G1 X127.313 Y113.511 E52.52535
G1 X127.506 Y114.226 E52.61422
G1 X127.505 Y115.029 E52.71058
G1 X127.405 Y115.597 E52.77979
G1 X127.146 Y116.315 E52.87138
G1 X126.693 Y116.968 E52.96675
G1 X126.256 Y117.403 E53.04074
G1 X125.758 Y117.751 E53.11365
G1 X125.214 Y118.005 E53.18569
G1 X124.461 Y118.206 E53.27922
G1 X123.672 Y118.205 E53.3739
G1 X123.101 Y118.104 E53.44348
G1 X122.37 Y117.838 E53.53683
G1 X121.738 Y117.397 E53.62931
G1 X121.292 Y116.948 E53.70525
G1 X120.959 Y116.473 E53.77486
G1 X120.696 Y115.913 E53.8491
G1 X120.494 Y115.164 E53.9422
G1 X120.495 Y114.371 E54.03736
G0 F3000 X120.53 Y114.174
G0 X120.093 Y114.348
;TYPE:WALL-INNER
G1 F1800 X120.209 Y113.692 E54.1173
G1 X120.501 Y112.886 E54.22017
G1 X120.997 Y112.177 E54.324
G1 X121.477 Y111.697 E54.40546
G1 X121.989 Y111.337 E54.48057
G1 X122.081 Y111.284 E54.49331
G1 X122.647 Y111.021 E54.5682
G1 X123.494 Y110.793 E54.67346
G1 X124.339 Y110.794 E54.77486
G1 X125.005 Y110.908 E54.85594
G1 X125.817 Y111.203 E54.95961
G1 X126.523 Y111.697 E55.06301
G1 X127.007 Y112.181 E55.14515
G1 X127.394 Y112.735 E55.22625
G1 X127.686 Y113.357 E55.3087
G1 X127.906 Y114.175 E55.41035
G1 X127.904 Y115.074 E55.51823
G1 X127.797 Y115.683 E55.59243
G1 X127.499 Y116.517 E55.69871
G1 X126.989 Y117.238 E55.80468
G1 X126.5 Y117.721 E55.88716
G1 X125.943 Y118.107 E55.96848
G1 X125.368 Y118.375 E56.04461
G1 X124.535 Y118.602 E56.14821
G1 X123.658 Y118.606 E56.25346
G1 X122.984 Y118.49 E56.33552
G1 X122.186 Y118.193 E56.4377
G1 X121.501 Y117.72 E56.53759
G1 X120.993 Y117.22 E56.62313
G1 X120.622 Y116.689 E56.70086
G1 X120.326 Y116.067 E56.78352
G1 X120.098 Y115.239 E56.88658
G1 X120.093 Y114.348 E56.9935
G0 F3000 X119.687 Y114.28
G1 F1742.3 X119.824 Y113.579 E57.08178
G1 F1780.4 X120.143 Y112.701 E57.195
G1 F1800 X120.687 Y111.921 E57.30912
G1 X121.22 Y111.388 E57.39957
G1 X121.759 Y111.009 E57.47864
G1 X121.911 Y110.921 E57.49972
G1 X122.534 Y110.633 E57.58208
G1 X123.443 Y110.394 E57.69487
G1 X124.369 Y110.395 E57.80599
G1 X125.106 Y110.519 E57.89567
G1 X126.005 Y110.846 E58.01047
G1 X126.782 Y111.39 E58.12429
G1 X127.313 Y111.921 E58.2144
G1 X127.742 Y112.534 E58.30418
G1 F1761.2 X128.056 Y113.203 E58.39464
G1 F1714.7 X128.312 Y114.074 E58.50848
G1 F1737.7 X128.312 Y115.07 E58.63189
G1 F1785.3 X128.176 Y115.844 E58.7269
G1 F1805 X127.854 Y116.705 E58.83693
G1 F1800 X127.335 Y117.461 E58.94697
G1 F1795.1 X126.784 Y118.012 E59.04071
G1 F1790.1 X126.197 Y118.432 E59.12776
G1 X125.444 Y118.782 E59.2279
G1 F1780.4 X124.521 Y119.017 E59.34334
G1 F1765.9 X123.617 Y119.009 E59.45372
G1 F1770.7 X122.833 Y118.87 E59.5507
G1 F1780.4 X121.941 Y118.532 E59.66631
G1 X121.205 Y118.001 E59.77631
G1 F1775.6 X120.653 Y117.447 E59.87133
G1 X120.228 Y116.824 E59.96296
G1 F1770.7 X119.915 Y116.133 E60.05536
G1 F1761.2 X119.687 Y115.236 E60.16864
G1 F1737.7 X119.687 Y114.28 E60.28709
G10
G0 F3000 X95.495 Y114.371
;TYPE:WALL-OUTER
G11
G1 F1800 X95.603 Y113.778 E60.35942
G1 X95.859 Y113.072 E60.44954
G1 X96.314 Y112.426 E60.54436
G1 X96.751 Y111.993 E60.61818
G1 X97.25 Y111.646 E60.69111
G1 X97.802 Y111.39 E60.76413
G1 X98.556 Y111.193 E60.85765
G1 X99.309 Y111.193 E60.94801
G1 X99.89 Y111.294 E61.01877
G1 X100.63 Y111.561 E61.11318
G1 X101.274 Y112.014 E61.20766
G1 X101.707 Y112.451 E61.28148
G1 X102.054 Y112.95 E61.35442
G1 X102.313 Y113.511 E61.42857
G1 X102.506 Y114.226 E61.51744
G1 X102.505 Y115.029 E61.6138
G1 X102.405 Y115.597 E61.68301
G1 X102.146 Y116.315 E61.7746
G1 X101.693 Y116.968 E61.86997
G1 X101.256 Y117.403 E61.94396
G1 X100.846 Y117.689 E62.00395
G1 X100.758 Y117.751 E62.01687
G1 X100.214 Y118.005 E62.08891
G1 X99.461 Y118.206 E62.18243
G1 X98.672 Y118.205 E62.27711
G1 X98.101 Y118.104 E62.3467
G1 X97.37 Y117.838 E62.44005
G1 X96.738 Y117.397 E62.53252
G1 X96.292 Y116.948 E62.60847
G1 X95.959 Y116.473 E62.67808
G1 X95.696 Y115.913 E62.75232
G1 X95.494 Y115.164 E62.84541
G1 X95.495 Y114.371 E62.94057
G0 F3000 X95.53 Y114.174
G0 X95.093 Y114.348
;TYPE:WALL-INNER
G1 F1800 X95.209 Y113.692 E63.02051
G1 X95.501 Y112.886 E63.12339
G1 X95.997 Y112.177 E63.22722
G1 X96.477 Y111.697 E63.30868
G1 X97.032 Y111.307 E63.39008
G1 X97.647 Y111.021 E63.47147
G1 X98.494 Y110.793 E63.57672
G1 X99.339 Y110.794 E63.67812
G1 X100.005 Y110.908 E63.75921
G1 X100.817 Y111.203 E63.86288
G1 X101.523 Y111.697 E63.96628
G1 X102.007 Y112.181 E64.04842
G1 X102.394 Y112.735 E64.12951
G1 X102.686 Y113.357 E64.21197
G1 X102.906 Y114.175 E64.31361
G1 X102.904 Y115.074 E64.42149
G1 X102.797 Y115.683 E64.49569
G1 X102.499 Y116.517 E64.60197
G1 X101.989 Y117.238 E64.70795
G1 X101.5 Y117.721 E64.79043
G1 X101.076 Y118.017 E64.85248
G1 X100.943 Y118.107 E64.87175
G1 X100.368 Y118.375 E64.94787
G1 X99.535 Y118.602 E65.05148
G1 X98.658 Y118.606 E65.15672
G1 X97.984 Y118.49 E65.23879
G1 X97.186 Y118.193 E65.34097
G1 X96.501 Y117.72 E65.44086
G1 X95.993 Y117.22 E65.52639
G1 X95.622 Y116.689 E65.60413
G1 X95.326 Y116.067 E65.68679
G1 X95.098 Y115.239 E65.78985
G1 X95.093 Y114.348 E65.89677
G0 F3000 X94.687 Y114.28
G1 F1742.3 X94.824 Y113.579 E65.98505
G1 F1780.4 X95.143 Y112.701 E66.09827
G1 F1800 X95.687 Y111.921 E66.21239
G1 X96.22 Y111.388 E66.30284
G1 X96.833 Y110.957 E66.39276
G1 X97.534 Y110.633 E66.48543
G1 X98.443 Y110.394 E66.59822
G1 X99.369 Y110.395 E66.70934
G1 X100.106 Y110.519 E66.79902
G1 X101.005 Y110.846 E66.91382
G1 X101.782 Y111.39 E67.02764
G1 X102.313 Y111.921 E67.11775
G1 X102.742 Y112.534 E67.20754
G1 F1761.2 X103.056 Y113.203 E67.29799
G1 F1714.7 X103.312 Y114.074 E67.41184
G1 F1737.7 X103.312 Y115.07 E67.53524
G1 F1785.3 X103.176 Y115.844 E67.63025
G1 F1805 X102.854 Y116.705 E67.74028
G1 F1800 X102.335 Y117.461 E67.85032
G1 F1795.1 X101.784 Y118.012 E67.94407
G1 F1761.2 X101.31 Y118.351 E68.01539
G1 X101.128 Y118.464 E68.04162
G1 F1790.1 X100.445 Y118.782 E68.13248
G1 F1780.4 X99.521 Y119.017 E68.24803
G1 F1765.9 X98.617 Y119.009 E68.35841
G1 F1770.7 X97.833 Y118.87 E68.45539
G1 F1780.4 X96.941 Y118.532 E68.571
G1 X96.205 Y118.001 E68.681
G1 F1775.6 X95.653 Y117.447 E68.77602
G1 X95.228 Y116.824 E68.86765
G1 F1770.7 X94.915 Y116.133 E68.96005
G1 F1761.2 X94.687 Y115.236 E69.07333
G1 F1737.7 X94.687 Y114.28 E69.19178
G10
G0 F3000 X93.47 Y108.377
;TYPE:WALL-OUTER
G11
G1 F1800 X93.47 Y115.018 E69.9887
G1 X93.556 Y115.658 E70.06619
G1 X93.713 Y116.371 E70.1538
G1 X94.088 Y117.27 E70.27069
G1 X94.599 Y118.071 E70.3847
G1 X95.248 Y118.782 E70.50022
G1 X96.025 Y119.379 E70.61781
G1 X96.662 Y119.709 E70.70389
G1 X97.33 Y119.987 E70.79072
G1 X98.285 Y120.197 E70.90806
G1 X99.24 Y120.24 E71.02277
G1 X99.958 Y120.144 E71.1097
G1 X100.67 Y119.987 E71.19719
G1 X101.338 Y119.709 E71.28402
G1 X101.975 Y119.379 E71.3701
G1 X102.752 Y118.782 E71.48769
G1 X103.401 Y118.071 E71.60321
G1 X103.912 Y117.27 E71.71722
G1 X104.287 Y116.371 E71.83411
G1 X104.444 Y115.658 E71.92172
G1 X104.531 Y115.01 E72.00018
G1 X104.531 Y108.41 E72.79218
G1 X104.683 Y108.236 E72.8199
G1 X118.306 Y108.234 E74.45466
G1 X118.47 Y108.339 E74.47803
G1 X118.47 Y115.018 E75.27951
G1 X118.556 Y115.658 E75.357
G1 X118.713 Y116.371 E75.44461
G1 X119.088 Y117.27 E75.5615
G1 X119.599 Y118.071 E75.67552
G1 X120.248 Y118.782 E75.79104
G1 X121.025 Y119.379 E75.90862
G1 X121.662 Y119.709 E75.99471
G1 X122.33 Y119.987 E76.08153
G1 X123.285 Y120.197 E76.19887
G1 X124.24 Y120.24 E76.31359
G1 X124.958 Y120.144 E76.40051
G1 X125.67 Y119.987 E76.48801
G1 X126.338 Y119.709 E76.57483
G1 X126.975 Y119.379 E76.66092
G1 X127.752 Y118.782 E76.7785
G1 X128.401 Y118.071 E76.89402
G1 X128.912 Y117.27 E77.00804
G1 X129.287 Y116.371 E77.12493
G1 X129.444 Y115.658 E77.21254
G1 X129.531 Y115.01 E77.29099
G1 X129.531 Y108.41 E78.08299
G1 X129.682 Y108.236 E78.11064
G1 X134.947 Y108.229 E78.74244
G1 X135.566 Y108.179 E78.81696
G1 X136.148 Y108.03 E78.88905
G1 X136.843 Y107.725 E78.98013
G1 X137.564 Y107.164 E79.08976
G1 X138.129 Y106.44 E79.19996
G1 X138.433 Y105.746 E79.29088
G1 X138.579 Y105.167 E79.36254
G1 X138.63 Y104.547 E79.43719
G1 X138.631 Y85.668 E81.70267
G1 X138.558 Y84.837 E81.80277
G1 X138.231 Y83.94 E81.91734
G1 X137.78 Y83.289 E82.01238
G1 X137.311 Y82.821 E82.09188
G1 X136.664 Y82.371 E82.18646
G1 X135.759 Y82.043 E82.30197
G1 X134.947 Y81.97 E82.3998
G1 X88.053 Y81.97 E88.02708
G1 X87.241 Y82.042 E88.1249
G1 X86.339 Y82.369 E88.24004
G1 X85.689 Y82.821 E88.33504
G1 X85.221 Y83.289 E88.41446
G1 X84.772 Y83.935 E88.50887
G1 X84.442 Y84.837 E88.62413
